X:10819
T:Minuet - Play Slow
M:3/4
L:1/4
N:Tune notated with DC at end - to finish on an
K:F
A/2B/2 A A|d/2e/2 d e|f e d|e c2|BAG|A G/2sF/2sE/2sD/2s|G/4sF/4E/2s E2|D
3:|!
A/2B/2 A G|F d2|G/2A/2 G F|E c2|FED| cBA|fed|f/2se/2sc2:|
